<?xml version="1.0" encoding="UTF-8"?>
<map version="1.10" tiledversion="1.12.0" orientation="orthogonal" renderorder="right-down" width="30" height="20" tilewidth="32" tileheight="32" infinite="1" nextlayerid="6" nextobjectid="38">
 <editorsettings>
  <export target="neutral.tmj" format="json"/>
 </editorsettings>
 <tileset firstgid="1" source="collection.tsx"/>
 <layer id="1" name="Ground" width="30" height="20">
  <data encoding="csv">
   <chunk x="-16" y="0" width="16" height="16">
9,9,9,9,9,9,9,9,9,9,9,9,9,9,9,9,
9,9,9,9,9,9,9,9,9,9,9,9,9,9,9,9,
9,9,9,9,9,9,9,9,9,9,9,9,9,9,9,9,
9,9,9,9,9,9,9,9,9,9,9,9,9,9,9,9,
9,9,9,9,9,9,9,9,9,9,9,9,9,9,9,9,
9,9,9,9,9,9,9,9,9,9,9,9,9,9,9,9,
9,9,9,9,9,9,9,9,9,9,9,9,9,9,9,9,
9,9,9,9,9,9,9,9,9,9,9,9,9,9,9,9,
9,9,9,9,9,9,9,9,9,9,9,9,9,9,9,9,
9,9,9,9,9,9,9,9,9,9,9,9,9,9,9,9,
9,9,9,9,9,9,9,9,9,9,9,9,9,9,9,9,
9,9,9,9,9,9,9,9,9,9,9,9,9,9,9,9,
9,9,9,9,9,9,9,9,9,9,9,9,9,9,9,9,
9,9,9,9,9,9,9,9,9,9,9,9,9,9,9,9,
9,9,9,9,9,9,9,9,9,9,9,9,9,9,9,9,
9,9,9,9,9,9,9,9,9,9,9,9,9,9,9,9
</chunk>
   <chunk x="0" y="0" width="16" height="16">
9,9,9,9,9,9,9,9,9,9,9,9,9,9,9,9,
9,9,9,9,9,9,9,9,9,9,9,9,9,9,9,9,
9,9,9,9,9,9,9,9,9,9,9,9,9,9,9,9,
9,9,9,9,9,9,9,9,9,9,9,9,9,9,9,9,
9,9,9,9,9,9,9,9,9,9,9,9,9,9,9,9,
9,9,9,9,9,9,9,9,9,9,9,9,9,9,9,9,
9,9,9,9,9,9,9,9,9,9,9,9,9,9,9,9,
9,9,9,9,9,9,9,9,9,9,9,9,9,9,9,9,
9,9,9,9,9,9,9,9,9,9,9,9,9,9,9,9,
9,9,9,9,9,9,9,9,9,9,9,9,9,9,9,9,
9,9,9,9,9,9,9,9,9,9,9,9,9,9,9,9,
9,9,9,9,9,9,9,9,9,9,9,9,9,9,9,9,
9,9,9,9,9,9,9,9,9,9,9,9,9,9,9,9,
9,9,9,9,9,9,9,9,9,9,9,9,9,9,9,9,
9,9,9,9,9,9,9,9,9,9,9,9,9,9,9,9,
9,9,9,9,9,9,9,9,9,9,9,9,9,9,9,9
</chunk>
   <chunk x="-16" y="16" width="16" height="16">
9,9,9,9,9,9,9,9,9,9,9,9,9,9,9,9,
9,9,9,9,9,9,9,9,9,9,9,9,9,9,9,9,
9,9,9,9,9,9,9,9,9,9,9,9,9,9,9,9,
9,9,9,9,9,9,9,9,9,9,9,9,9,9,9,9,
9,9,9,9,9,9,9,9,9,9,9,9,9,9,9,9,
9,9,9,9,9,9,9,9,9,9,9,9,9,9,9,9,
9,9,9,9,9,9,9,9,9,9,9,9,9,9,9,9,
9,9,9,9,9,9,9,9,9,9,9,9,9,9,9,9,
9,9,9,9,9,9,9,9,9,9,9,9,9,9,9,9,
9,9,9,9,9,9,9,9,9,9,9,9,9,9,9,9,
9,9,9,9,9,9,9,9,9,9,9,9,9,9,9,9,
9,9,9,9,9,9,9,9,9,9,9,9,9,9,9,9,
9,9,9,9,9,9,9,9,9,9,9,9,9,9,9,9,
9,9,9,9,9,9,9,9,9,9,9,9,9,9,9,9,
9,9,9,9,9,9,9,9,9,9,9,9,9,9,9,9,
9,9,9,9,9,9,9,9,9,9,9,9,9,9,9,9
</chunk>
   <chunk x="0" y="16" width="16" height="16">
9,9,9,9,9,9,9,9,9,9,9,9,9,9,9,9,
9,9,9,9,9,9,9,9,9,9,9,9,9,9,9,9,
9,9,9,9,9,9,9,9,9,9,9,9,9,9,9,9,
9,9,9,9,9,9,9,9,9,9,9,9,9,9,9,9,
9,9,9,9,9,9,9,9,9,9,9,9,9,9,9,9,
9,9,9,9,9,9,9,9,9,9,9,9,9,9,9,9,
9,9,9,9,9,9,9,9,9,9,9,9,9,9,9,9,
9,9,9,9,9,9,9,9,9,9,9,9,9,9,9,9,
9,9,9,9,9,9,9,9,9,9,9,9,9,9,9,9,
9,9,9,9,9,9,9,9,9,9,9,9,9,9,9,9,
9,9,9,9,9,9,9,9,9,9,9,9,9,9,9,9,
9,9,9,9,9,9,9,9,9,9,9,9,9,9,9,9,
9,9,9,9,9,9,9,9,9,9,9,9,9,9,9,9,
9,9,9,9,9,9,9,9,9,9,9,9,9,9,9,9,
9,9,9,9,9,9,9,9,9,9,9,9,9,9,9,9,
9,9,9,9,9,9,9,9,9,9,9,9,9,9,9,9
</chunk>
  </data>
 </layer>
 <objectgroup id="2" name="Decorations">
  <object id="1" gid="115" x="-123.5" y="61.5" width="24" height="24"/>
  <object id="2" gid="115" x="-27" y="60.5" width="24" height="24"/>
  <object id="3" gid="115" x="70.5" y="59" width="24" height="24"/>
  <object id="4" gid="206" x="9" y="123.5" width="20" height="22"/>
  <object id="5" gid="206" x="-53" y="124" width="20" height="22"/>
  <object id="6" gid="206" x="-125.5" y="122.5" width="20" height="22"/>
  <object id="7" gid="305" x="-117" y="184.5" width="21" height="21"/>
  <object id="8" gid="305" x="-25" y="185" width="21" height="21"/>
  <object id="9" gid="305" x="42" y="185.5" width="21" height="21"/>
 </objectgroup>
 <objectgroup id="3" name="InteractObjects">
  <object id="30" gid="493" x="-448" y="224" width="30" height="29"/>
  <object id="31" gid="493" x="-384" y="224" width="30" height="29"/>
  <object id="32" gid="493" x="-416" y="256" width="30" height="29"/>
  <object id="33" gid="493" x="-448" y="320" width="30" height="29"/>
  <object id="34" gid="493" x="-416" y="384" width="30" height="29"/>
  <object id="35" gid="493" x="-352" y="416" width="30" height="29"/>
 </objectgroup>
 <objectgroup id="4" name="Obstacles">
  <object id="21" gid="5" x="0" y="416" width="70" height="114"/>
  <object id="22" gid="5" x="160" y="320" width="70" height="114"/>
  <object id="23" gid="5" x="-192" y="320" width="70" height="114"/>
  <object id="24" gid="5" x="-192" y="576" width="70" height="114"/>
  <object id="25" gid="5" x="160" y="576" width="70" height="114"/>
 </objectgroup>
 <objectgroup id="5" name="SpawnPoints">
  <object id="27" name="PlayerSpawn" x="-336" y="181">
   <point/>
  </object>
  <object id="37" name="Gatekeeper" x="-208.667" y="219.333">
   <point/>
  </object>
 </objectgroup>
</map>
