<?xml version="1.0" encoding="UTF-8"?>
<map version="1.10" tiledversion="1.12.0" orientation="orthogonal" renderorder="right-down" width="30" height="20" tilewidth="32" tileheight="32" infinite="1" nextlayerid="7" nextobjectid="136">
 <editorsettings>
  <export target="world.tmj" format="json"/>
 </editorsettings>
 <tileset firstgid="1" source="collection.tsx"/>
 <layer id="1" name="Ground" width="30" height="20">
  <properties>
   <property name="zIndex" value="ground"/>
  </properties>
  <data encoding="csv">
   <chunk x="-32" y="0" width="16" height="16">
9,9,9,9,9,9,9,9,9,9,9,9,9,9,9,9,
9,9,9,9,9,9,9,9,9,9,9,9,9,9,9,9,
9,9,9,9,9,9,9,9,9,9,9,9,9,9,9,9,
9,9,9,9,9,9,9,9,9,9,9,9,9,9,9,9,
9,9,9,9,9,9,9,9,9,9,9,9,9,9,9,9,
9,9,9,9,9,9,9,9,9,9,9,9,9,9,9,9,
9,9,9,9,9,9,9,9,9,9,9,9,9,9,9,9,
9,9,9,9,9,9,9,9,9,9,9,9,9,9,9,9,
9,9,9,9,9,9,9,9,9,9,9,9,9,9,9,9,
9,9,9,9,9,9,9,9,9,9,9,9,9,9,9,9,
9,9,9,9,9,9,9,9,9,9,9,9,9,9,9,9,
9,9,9,9,9,9,9,9,9,9,9,9,9,9,9,9,
9,9,9,9,9,9,9,9,9,9,9,9,9,9,9,9,
9,9,9,9,9,9,9,9,9,9,9,9,9,9,9,9,
9,9,9,9,9,9,9,9,9,9,9,9,9,9,9,9,
9,9,9,9,9,9,9,9,9,9,9,9,9,9,9,9
</chunk>
   <chunk x="-16" y="0" width="16" height="16">
9,9,9,9,9,9,9,9,9,9,9,9,9,9,9,9,
9,9,9,9,9,9,9,9,9,9,9,9,9,9,9,9,
9,9,9,9,9,9,9,9,9,9,9,9,9,9,9,9,
9,9,9,9,9,9,9,9,9,9,9,9,9,9,9,9,
9,9,9,9,9,9,9,9,9,9,9,9,9,9,9,9,
9,9,9,9,9,9,9,9,9,9,9,9,9,9,9,9,
9,9,9,9,9,9,9,9,9,9,9,9,9,9,9,9,
9,9,9,9,9,9,9,9,9,9,9,9,9,9,9,9,
9,9,9,9,9,9,9,9,9,9,9,9,9,9,9,9,
9,9,9,9,9,9,9,9,9,9,9,9,9,9,9,9,
9,9,9,9,9,9,9,9,9,9,9,9,9,9,9,9,
9,9,9,9,9,9,9,9,9,9,9,9,9,9,9,9,
9,9,9,9,9,9,9,9,9,9,9,9,9,9,9,9,
9,9,9,9,9,9,9,9,9,9,9,9,9,9,9,9,
9,9,9,9,9,9,9,9,9,9,9,9,9,9,9,9,
9,9,9,9,9,9,9,9,9,9,9,9,9,9,9,9
</chunk>
   <chunk x="0" y="0" width="16" height="16">
9,9,9,9,9,9,9,9,9,9,9,9,9,9,9,9,
9,9,9,9,9,9,9,9,9,9,9,9,9,9,9,9,
9,9,9,9,9,9,9,9,9,9,9,9,9,9,9,9,
9,9,9,9,9,9,9,9,9,9,9,9,9,9,9,9,
9,9,9,9,9,9,9,9,9,9,9,9,9,9,9,9,
9,9,9,9,9,9,9,9,9,9,9,9,9,9,9,9,
9,9,9,9,9,9,9,9,9,9,9,9,9,9,9,9,
9,9,9,9,9,9,9,9,9,9,9,9,9,9,9,9,
9,9,9,9,9,9,9,9,9,9,9,9,9,9,9,9,
9,9,9,9,9,9,9,9,9,9,9,9,9,9,9,9,
9,9,9,9,9,9,9,9,9,9,9,9,9,9,9,9,
9,9,9,9,9,9,9,9,9,9,9,9,9,9,9,9,
9,9,9,9,9,9,9,9,9,9,9,9,9,9,9,9,
9,9,9,9,9,9,9,9,9,9,9,9,9,9,9,9,
9,9,9,9,9,9,9,9,9,9,9,9,9,9,9,9,
9,9,9,9,9,9,9,9,9,9,9,9,9,9,9,9
</chunk>
   <chunk x="-32" y="16" width="16" height="16">
9,9,9,9,9,9,9,9,9,9,9,9,9,9,9,9,
9,9,9,9,9,9,9,9,9,9,9,9,9,9,9,9,
9,9,9,9,9,9,9,9,9,9,9,9,9,9,9,9,
9,9,9,9,9,9,9,9,9,9,9,9,9,9,9,9,
9,9,9,9,9,9,9,9,9,9,9,9,9,9,9,9,
9,9,9,9,9,9,9,9,9,9,9,9,9,9,9,9,
9,9,9,9,9,9,9,9,9,9,9,9,9,9,9,9,
9,9,9,9,9,9,9,9,9,9,9,9,9,9,9,9,
9,9,9,9,9,9,9,9,9,9,9,9,9,9,9,9,
9,9,9,9,9,9,9,9,9,9,9,9,9,9,9,9,
9,9,9,9,9,9,9,9,9,9,9,9,9,9,9,9,
9,9,9,9,9,9,9,9,9,9,9,9,9,9,9,9,
9,9,9,9,9,9,9,9,9,9,9,9,9,9,9,9,
9,9,9,9,9,9,9,9,9,9,9,9,9,9,9,9,
9,9,9,9,9,9,9,9,9,9,9,9,9,9,9,9,
9,9,9,9,9,9,9,9,9,9,9,9,9,9,9,9
</chunk>
   <chunk x="-16" y="16" width="16" height="16">
9,9,9,9,9,9,9,9,9,9,9,9,9,9,9,9,
9,9,9,9,9,9,9,9,9,9,9,9,9,9,9,9,
9,9,9,9,9,9,9,9,9,9,9,9,9,9,9,9,
9,9,9,9,9,9,9,9,9,9,9,9,9,9,9,9,
9,9,9,9,9,9,9,9,9,9,9,9,9,9,9,9,
9,9,9,9,9,9,9,9,9,9,9,9,9,9,9,9,
9,9,9,9,9,9,9,9,9,9,9,9,9,9,9,9,
9,9,9,9,9,9,9,9,9,9,9,9,9,9,9,9,
9,9,9,9,9,9,9,9,9,9,9,9,9,9,9,9,
9,9,9,9,9,9,9,9,9,9,9,9,9,9,9,9,
9,9,9,9,9,9,9,9,9,9,9,9,9,9,9,9,
9,9,9,9,9,9,9,9,9,9,9,9,9,9,9,9,
9,9,9,9,9,9,9,9,9,9,9,9,9,9,9,9,
9,9,9,9,9,9,9,9,9,9,9,9,9,9,9,9,
9,9,9,9,9,9,9,9,9,9,9,9,9,9,9,9,
9,9,9,9,9,9,9,9,9,9,9,9,9,9,9,9
</chunk>
   <chunk x="0" y="16" width="16" height="16">
9,9,9,9,9,9,9,9,9,9,9,9,9,9,9,9,
9,9,9,9,9,9,9,9,9,9,9,9,9,9,9,9,
9,9,9,9,9,9,9,9,9,9,9,9,9,9,9,9,
9,9,9,9,9,9,9,9,9,9,9,9,9,9,9,9,
9,9,9,9,9,9,9,9,9,9,9,9,9,9,9,9,
9,9,9,9,9,9,9,9,9,9,9,9,9,9,9,9,
9,9,9,9,9,9,9,9,9,9,9,9,9,9,9,9,
9,9,9,9,9,9,9,9,9,9,9,9,9,9,9,9,
9,9,9,9,9,9,9,9,9,9,9,9,9,9,9,9,
9,9,9,9,9,9,9,9,9,9,9,9,9,9,9,9,
9,9,9,9,9,9,9,9,9,9,9,9,9,9,9,9,
9,9,9,9,9,9,9,9,9,9,9,9,9,9,9,9,
9,9,9,9,9,9,9,9,9,9,9,9,9,9,9,9,
9,9,9,9,9,9,9,9,9,9,9,9,9,9,9,9,
9,9,9,9,9,9,9,9,9,9,9,9,9,9,9,9,
9,9,9,9,9,9,9,9,9,9,9,9,9,9,9,9
</chunk>
  </data>
 </layer>
 <objectgroup id="5" name="Decorations">
  <properties>
   <property name="zIndex" value="belowplayer"/>
  </properties>
  <object id="106" gid="138" x="-576" y="64" width="22" height="23"/>
  <object id="107" gid="138" x="-504" y="60" width="22" height="23"/>
  <object id="108" gid="138" x="-441" y="61" width="22" height="23"/>
  <object id="109" gid="187" x="-378.333" y="58.3333" width="17" height="23"/>
  <object id="110" gid="187" x="-349.667" y="55.3333" width="17" height="23"/>
  <object id="111" gid="187" x="-334" y="65.6667" width="17" height="23"/>
  <object id="112" gid="349" x="-542" y="85.3333" width="14" height="20"/>
  <object id="113" gid="349" x="-526" y="85" width="14" height="20"/>
  <object id="114" gid="349" x="-510.667" y="94.6667" width="14" height="20"/>
  <object id="115" gid="349" x="-495.333" y="85" width="14" height="20"/>
 </objectgroup>
 <objectgroup id="4" name="InteractObjects">
  <properties>
   <property name="zIndex" value="main"/>
  </properties>
  <object id="118" gid="493" x="-864" y="320" width="30" height="29"/>
  <object id="119" gid="493" x="-864" y="384" width="30" height="29"/>
  <object id="120" gid="493" x="-864" y="448" width="30" height="29"/>
 </objectgroup>
 <objectgroup id="2" name="Obstacles">
  <properties>
   <property name="zIndex" value="main"/>
  </properties>
  <object id="28" gid="2" x="-288" y="256" width="113" height="142"/>
  <object id="29" gid="2" x="-64" y="256" width="113" height="142"/>
  <object id="30" gid="2" x="192" y="256" width="113" height="142"/>
  <object id="31" gid="3" x="192" y="448" width="95" height="136"/>
  <object id="32" gid="3" x="-64" y="448" width="95" height="136"/>
  <object id="33" gid="3" x="-288" y="448" width="95" height="136"/>
  <object id="34" gid="4" x="-288" y="640" width="79" height="120"/>
  <object id="35" gid="4" x="-64" y="640" width="79" height="120"/>
  <object id="36" gid="4" x="192" y="640" width="79" height="120"/>
  <object id="37" gid="5" x="192" y="800" width="70" height="114"/>
  <object id="38" gid="5" x="-64" y="800" width="70" height="114"/>
  <object id="39" gid="6" x="-192" y="800" width="39" height="45"/>
  <object id="40" gid="6" x="-288" y="800" width="39" height="45"/>
  <object id="41" gid="7" x="-192" y="736" width="47" height="42"/>
  <object id="42" gid="7" x="-288" y="736" width="47" height="42"/>
  <object id="43" gid="8" x="-192" y="864" width="40" height="35"/>
  <object id="44" gid="8" x="-288" y="864" width="40" height="35"/>
  <object id="45" gid="10" x="-192" y="928" width="38" height="32"/>
  <object id="46" gid="10" x="-288" y="928" width="38" height="32"/>
  <object id="47" gid="11" x="-384" y="192" width="30" height="31"/>
  <object id="48" gid="11" x="-384" y="256" width="30" height="31"/>
  <object id="49" gid="12" x="-384" y="320" width="30" height="29"/>
  <object id="50" gid="12" x="-384" y="384" width="30" height="29"/>
  <object id="51" gid="13" x="-384" y="448" width="27" height="25"/>
  <object id="52" gid="13" x="-384" y="512" width="27" height="25"/>
  <object id="53" gid="14" x="-384" y="576" width="22" height="19"/>
  <object id="54" gid="14" x="-384" y="640" width="22" height="19"/>
  <object id="68" gid="5" x="-480" y="192" width="70" height="114"/>
  <object id="69" gid="13" x="-96" y="96" width="27" height="25"/>
  <object id="70" gid="13" x="64" y="96" width="27" height="25"/>
  <object id="71" gid="13" x="192" y="96" width="27" height="25"/>
  <object id="72" gid="13" x="320" y="64" width="27" height="25"/>
  <object id="73" gid="13" x="384" y="96" width="27" height="25"/>
  <object id="74" gid="13" x="-320" y="96" width="27" height="25"/>
  <object id="75" gid="13" x="-288" y="64" width="27" height="25"/>
  <object id="76" gid="13" x="-224" y="96" width="27" height="25"/>
  <object id="77" gid="3" x="-704" y="256" width="95" height="136"/>
  <object id="78" gid="3" x="-608" y="352" width="95" height="136"/>
  <object id="122" gid="5" x="-1246" y="224" width="70" height="114"/>
  <object id="123" gid="5" x="-1095" y="222" width="70" height="114"/>
  <object id="124" gid="18" x="-956.636" y="173" width="15" height="10"/>
  <object id="125" gid="18" x="-946.091" y="181" width="15" height="10"/>
  <object id="126" gid="18" x="-958.091" y="189.636" width="15" height="10"/>
  <object id="127" gid="18" x="-942.273" y="169.455" width="15" height="10"/>
  <object id="128" gid="18" x="-992" y="192" width="15" height="10"/>
  <object id="129" gid="18" x="-992" y="160" width="15" height="10"/>
  <object id="130" gid="18" x="-1024" y="160" width="15" height="10"/>
  <object id="131" gid="18" x="-1024" y="128" width="15" height="10"/>
  <object id="132" gid="18" x="-992" y="128" width="15" height="10"/>
 </objectgroup>
 <objectgroup id="6" name="SpawnPoints">
  <properties>
   <property name="zIndex" value="ground"/>
  </properties>
  <object id="117" name="PlayerSpawn" x="-622.667" y="58">
   <point/>
  </object>
  <object id="121" name="GateKeeper" x="-941.333" y="88.6667">
   <point/>
  </object>
 </objectgroup>
</map>
