<?xml version="1.0" encoding="UTF-8"?>
<map version="1.10" tiledversion="1.12.0" orientation="orthogonal" renderorder="right-down" width="30" height="20" tilewidth="32" tileheight="32" infinite="1" nextlayerid="4" nextobjectid="20">
 <editorsettings>
  <export target="for_export.tmx" format="tmx"/>
 </editorsettings>
 <tileset firstgid="1" name="texture-1" tilewidth="32" tileheight="32" tilecount="12" columns="3">
  <image source="pack-result(4)/texture-1.png" width="96" height="128"/>
  <tile id="0">
   <properties>
    <property name="StructureType" value="Grass"/>
    <property name="isWalkable" type="bool" value="true"/>
    <property name="name" value="green_ground"/>
   </properties>
  </tile>
  <tile id="1">
   <properties>
    <property name="StructureType" value="Rock"/>
    <property name="isWalkable" type="bool" value="true"/>
    <property name="name" value="gray_rock"/>
   </properties>
  </tile>
  <tile id="2">
   <properties>
    <property name="StructureType" value="Rock"/>
    <property name="isWalkable" type="bool" value="true"/>
    <property name="name" value="green_rock"/>
   </properties>
  </tile>
  <tile id="3">
   <properties>
    <property name="StructureType" value="GROUND"/>
    <property name="isWalkable" type="bool" value="true"/>
    <property name="name" value="green_ground"/>
   </properties>
  </tile>
 </tileset>
 <tileset firstgid="13" source="../../C++_RPG_Game_(SFML)/assets/assets_processed/collection.tsx"/>
 <layer id="1" name="Ground_layer" width="30" height="20">
  <data encoding="csv">
   <chunk x="0" y="0" width="16" height="16">
1,1,1,1,1,1,1,1,1,1,1,1,1,1,1,1,
1,1,1,1,1,1,1,1,1,1,1,1,1,1,1,1,
1,1,1,1,1,1,118,118,1,1,1,1,1,1,1,1,
1,1,118,118,118,118,118,1,1,1,1,1,1,1,1,1,
1,1,1,1,1,1,1,1,1,1,1,1,1,1,1,1,
1,1,1,1,1,1,1,1,1,1,1,1,1,1,1,1,
1,1,1,1,1,1,1,1,1,1,1,1,1,1,1,1,
1,1,1,1,1,1,1,1,1,1,1,1,1,1,1,1,
1,1,1,1,1,1,1,1,1,1,1,1,1,1,1,1,
1,1,1,1,1,1,1,1,1,1,1,1,1,1,1,1,
1,1,1,1,1,1,1,1,1,1,1,1,1,1,1,1,
1,1,1,1,1,1,1,1,1,1,1,1,1,1,1,1,
1,1,1,1,1,1,1,1,1,1,1,1,1,1,1,1,
1,1,1,1,1,1,1,1,1,1,1,1,1,1,1,1,
1,1,1,1,1,1,1,1,1,1,1,1,1,1,1,1,
1,1,1,1,1,1,1,1,1,1,1,1,1,1,1,1
</chunk>
  </data>
 </layer>
 <layer id="2" name="Obstacles" width="30" height="20">
  <data encoding="csv">
   <chunk x="0" y="0" width="16" height="16">
0,0,0,0,0,0,0,0,13,0,0,0,0,0,0,0,
0,0,2,2,2,2,0,0,13,0,0,0,0,0,0,0,
0,0,0,0,0,0,0,0,0,13,0,0,0,0,161,0,
0,0,0,0,0,0,0,0,0,13,0,218,0,0,0,0,
0,0,0,211,0,0,0,2,0,13,13,3,3,3,3,0,
0,0,0,2,2,2,2,2,0,0,13,0,3,3,0,0,
0,0,0,2,2,2,2,2,0,0,0,0,3,3,0,0,
0,0,0,2,0,0,0,2,0,0,0,3,3,3,3,0,
0,0,0,0,0,0,259,259,259,0,0,0,0,0,0,0,
0,0,0,0,0,0,259,259,259,0,0,0,0,0,0,0,
0,0,0,0,0,0,259,259,0,0,259,259,0,0,0,0,
0,0,0,0,0,0,0,259,259,259,0,0,0,0,0,0,
0,0,0,0,0,0,0,0,0,0,0,0,0,0,161,0,
0,0,161,2,0,0,0,0,0,0,0,2,0,0,0,0,
0,0,0,0,161,2,0,2,0,2,0,0,0,0,0,0,
0,0,0,0,0,0,0,0,0,0,0,0,0,0,0,0
</chunk>
   <chunk x="16" y="0" width="16" height="16">
0,0,0,0,0,0,0,0,0,0,0,0,0,0,0,0,
0,0,0,0,0,0,0,0,0,0,0,0,0,0,0,0,
0,0,0,0,0,0,0,0,0,0,0,0,0,0,0,0,
0,0,0,0,0,0,211,0,0,0,0,0,0,0,0,0,
0,0,0,0,0,0,0,0,0,0,0,0,0,0,0,0,
0,0,0,0,0,0,0,0,0,0,0,0,0,0,0,0,
0,0,0,0,211,0,0,0,0,0,0,0,0,0,0,0,
0,0,0,0,0,0,211,0,0,0,0,0,0,0,0,0,
0,0,0,0,0,0,0,0,0,0,0,0,0,0,0,0,
0,0,0,0,0,0,0,0,0,0,0,0,0,0,0,0,
0,0,0,0,0,0,0,13,0,0,0,0,0,0,0,0,
0,0,0,0,0,0,0,0,0,0,0,0,0,0,0,0,
0,0,0,0,0,0,0,0,0,0,0,0,0,0,0,0,
0,0,0,0,0,0,0,0,0,0,0,0,0,0,0,0,
0,0,0,0,0,0,0,0,0,0,0,0,0,0,0,0,
0,0,0,0,0,0,0,0,0,0,0,0,0,0,0,0
</chunk>
  </data>
 </layer>
 <objectgroup id="3" name="Object Layer 1">
  <object id="1" gid="239" x="368" y="337" width="8" height="8"/>
  <object id="2" gid="223" x="248" y="306" width="38" height="32"/>
  <object id="3" gid="217" x="474" y="-6" width="113" height="142"/>
  <object id="4" gid="217" x="102" y="389" width="113" height="142"/>
  <object id="5" gid="218" x="2" y="357" width="95" height="136"/>
  <object id="6" gid="219" x="4" y="32" width="79" height="120"/>
  <object id="7" gid="219" x="329" y="400" width="79" height="120"/>
  <object id="16" gid="217" x="-171" y="210" width="113" height="142"/>
  <object id="17" gid="217" x="-186" y="360" width="113" height="142"/>
  <object id="18" gid="217" x="-154" y="478" width="113" height="142"/>
  <object id="19" gid="217" x="-272" y="32" width="113" height="142"/>
 </objectgroup>
</map>
