<?xml version="1.0" encoding="UTF-8"?>
<map version="1.10" tiledversion="1.12.0" orientation="orthogonal" renderorder="right-down" width="30" height="20" tilewidth="32" tileheight="32" infinite="1" nextlayerid="3" nextobjectid="7">
 <tileset firstgid="1" source="collection.tsx"/>
 <layer id="1" name="Tile Layer 1" width="30" height="20">
  <data encoding="csv">
   <chunk x="0" y="0" width="16" height="16">
230,230,230,230,230,230,230,230,230,230,230,230,230,230,230,230,
230,230,230,230,230,230,230,230,230,230,230,230,230,230,230,230,
230,230,230,230,230,230,230,230,230,230,230,230,230,230,230,230,
192,230,230,230,230,192,230,230,230,230,230,230,230,230,230,230,
230,230,230,230,230,230,230,230,230,230,230,230,191,230,230,230,
230,230,230,230,230,230,230,230,230,230,230,230,230,75,230,230,
230,230,230,230,230,230,230,230,230,191,230,230,230,230,230,230,
230,230,230,230,230,230,230,230,230,230,230,230,230,230,230,230,
230,230,230,230,230,230,230,230,230,230,230,230,230,75,230,230,
230,230,230,230,230,230,230,230,230,230,230,230,230,230,230,231,
230,230,230,230,230,230,230,230,230,230,230,230,230,75,230,230,
230,230,230,230,230,230,230,230,230,230,230,230,230,230,230,230,
230,230,230,230,230,230,230,230,351,230,230,230,230,230,230,230,
230,230,230,230,230,191,230,230,351,230,231,230,231,230,230,50,
191,230,230,230,230,230,230,230,351,230,230,230,230,230,230,230,
230,230,230,230,230,230,230,230,230,230,351,230,230,230,230,50
</chunk>
  </data>
 </layer>
 <objectgroup id="2" name="Object Layer 1">
  <object id="1" gid="205" x="158" y="207" width="113" height="142"/>
  <object id="2" gid="205" x="446" y="207" width="113" height="142"/>
  <object id="3" gid="205" x="266" y="355" width="113" height="142"/>
  <object id="4" gid="205" x="92" y="435" width="113" height="142"/>
  <object id="5" gid="205" x="64" y="327" width="113" height="142"/>
  <object id="6" gid="205" x="274" y="137" width="113" height="142"/>
 </objectgroup>
</map>
